assets/azuredefenderrelay/original.svg

<svg fill="none" height="18" viewBox="0 0 18 18" width="18" xmlns="http://www.w3.org/2000/svg" xmlns:xlink="http://www.w3.org/1999/xlink"><linearGradient id="a"><stop offset="0" stop-color="#0078d4"/><stop offset=".156" stop-color="#1380da"/><stop offset=".528" stop-color="#3c91e5"/><stop offset=".822" stop-color="#559cec"/><stop offset="1" stop-color="#5ea0ef"/></linearGradient><linearGradient id="b" gradientUnits="userSpaceOnUse" x1="15.3" x2="15.3" xlink:href="#a" y1="10.8" y2="5.4"/><linearGradient id="c" gradientUnits="userSpaceOnUse" x1="9" x2="9" xlink:href="#a" y1="11.7" y2="4.5"/><linearGradient id="d" gradientUnits="userSpaceOnUse" x1="2.7" x2="2.7" xlink:href="#a" y1="10.8" y2="5.4"/><path d="m14.908 10.034 1.238-1.389h-3.546v-1.09h3.546l-1.238-1.388.684-.767 2.408 2.7-2.408 2.7z" fill="url(#b)"/><path d="m6.3 5.5a1 1 0 0 1 1-1h3.4a1 1 0 0 1 1 1v5.2a1 1 0 0 1 -1 1h-3.4a1 1 0 0 1 -1-1z" fill="url(#c)"/><path clip-rule="evenodd" d="m10.8 7.2a1.8 1.8 0 0 0 -3.6 0v1.8a1.8 1.8 0 1 0 3.6 0zm-2.5-2.7a2 2 0 0 0 -2 2v3.2a2 2 0 0 0 2 2h1.4a2 2 0 0 0 2-2v-3.2a2 2 0 0 0 -2-2z" fill="url(#c)" fill-rule="evenodd"/><path d="m2.308 10.034 1.238-1.389h-3.546v-1.09h3.546l-1.238-1.388.684-.767 2.408 2.7-2.408 2.7z" fill="url(#d)"/></svg>

<svg xmlns="http://www.w3.org/2000/svg" xmlns:xlink="http://www.w3.org/1999/xlink" width="18" height="18" fill="none" viewBox="0 0 18 18"><linearGradient id="a"><stop offset="0" stop-color="#0078d4"/><stop offset=".156" stop-color="#1380da"/><stop offset=".528" stop-color="#3c91e5"/><stop offset=".822" stop-color="#559cec"/><stop offset="1" stop-color="#5ea0ef"/></linearGradient><linearGradient xlink:href="#a" id="b" x1="15.3" x2="15.3" y1="10.8" y2="5.4" gradientUnits="userSpaceOnUse"/><linearGradient xlink:href="#a" id="c" x1="9" x2="9" y1="11.7" y2="4.5" gradientUnits="userSpaceOnUse"/><linearGradient xlink:href="#a" id="d" x1="2.7" x2="2.7" y1="10.8" y2="5.4" gradientUnits="userSpaceOnUse"/><path fill="url(#b)" d="m14.908 10.034 1.238-1.389H12.6v-1.09h3.546l-1.238-1.388.684-.767L18 8.1l-2.408 2.7z"/><path fill="url(#c)" d="M6.3 5.5a1 1 0 0 1 1-1h3.4a1 1 0 0 1 1 1v5.2a1 1 0 0 1-1 1H7.3a1 1 0 0 1-1-1z"/><path fill="url(#c)" fill-rule="evenodd" d="M10.8 7.2a1.8 1.8 0 0 0-3.6 0V9a1.8 1.8 0 1 0 3.6 0zM8.3 4.5a2 2 0 0 0-2 2v3.2a2 2 0 0 0 2 2h1.4a2 2 0 0 0 2-2V6.5a2 2 0 0 0-2-2z" clip-rule="evenodd"/><path fill="url(#d)" d="m2.308 10.034 1.238-1.389H0v-1.09h3.546L2.308 6.167l.684-.767L5.4 8.1l-2.408 2.7z"/></svg>
